src/icons/prescription.icon.svg

<?xml version="1.0" encoding="UTF-8"?>
<svg width="24px" height="24px" viewBox="0 0 24 24" version="1.1" xmlns="http://www.w3.org/2000/svg" xmlns:xlink="http://www.w3.org/1999/xlink">
    <!-- Generator: Sketch 50.2 (55047) - http://www.bohemiancoding.com/sketch -->
    <title>IconPrescription</title>
    <desc>Created with Sketch.</desc>
    <defs></defs>

    <g id="styleguide" stroke="none" stroke-width="1" fill="none" fill-rule="evenodd">
        <path d="M6.81971794,20.1065089 L6.81971794,3.89349112 L12.5409112,3.89349112 L12.5409112,7.77514793 C12.5409112,8.29775148 12.9476181,8.72189349 13.4507701,8.72189349 L17.1802821,8.72189349 L17.1802821,20.1065089 L6.81971794,20.1065089 Z M14.3606291,5.23218935 L15.8937415,6.82840237 L14.3606291,6.82840237 L14.3606291,5.23218935 Z M18.9299409,7.41065089 C18.9754338,7.5252071 19,7.64923077 19,7.77514793 L19,21.0532544 C19,21.5768047 18.593293,22 18.090141,22 L5.90985897,22 C5.40761682,22 5,21.5768047 5,21.0532544 L5,2.94674556 C5,2.42414201 5.40761682,2 5.90985897,2 L13.4507701,2 C13.5717814,2 13.6909729,2.02556213 13.8010658,2.07384615 C13.9111588,2.12213018 14.0112433,2.1912426 14.0940404,2.2783432 L18.7334113,7.10485207 C18.8162085,7.19195266 18.8835381,7.29609467 18.9299409,7.41065089 Z M15.1901475,14.0710059 L8.81021642,14.0710059 C8.30797426,14.0710059 7.90035744,14.4942012 7.90035744,15.0177515 C7.90035744,15.5413018 8.30797426,15.964497 8.81021642,15.964497 L15.1901475,15.964497 C15.6932995,15.964497 16.1000065,15.5413018 16.1000065,15.0177515 C16.1000065,14.4942012 15.6932995,14.0710059 15.1901475,14.0710059 Z M8.81003444,9.92899408 L11.1301748,9.92899408 C11.6333268,9.92899408 12.0400338,9.50485207 12.0400338,8.98224852 C12.0400338,8.45964497 11.6333268,8.03550296 11.1301748,8.03550296 L8.81003444,8.03550296 C8.30779229,8.03550296 7.90017547,8.45964497 7.90017547,8.98224852 C7.90017547,9.50485207 8.30779229,9.92899408 8.81003444,9.92899408 Z M15.1901475,11.0532544 L8.81021642,11.0532544 C8.30797426,11.0532544 7.90035744,11.4773964 7.90035744,12 C7.90035744,12.5226036 8.30797426,12.9467456 8.81021642,12.9467456 L15.1901475,12.9467456 C15.6932995,12.9467456 16.1000065,12.5226036 16.1000065,12 C16.1000065,11.4773964 15.6932995,11.0532544 15.1901475,11.0532544 Z M14.0306233,17.0887574 L8.80985247,17.0887574 C8.30761032,17.0887574 7.8999935,17.5119527 7.8999935,18.035503 C7.8999935,18.5590533 8.30761032,18.9822485 8.80985247,18.9822485 L14.0306233,18.9822485 C14.5337753,18.9822485 14.9404822,18.5590533 14.9404822,18.035503 C14.9404822,17.5119527 14.5337753,17.0887574 14.0306233,17.0887574 Z" id="Combined-Shape" fill="currentColor"></path>
    </g>
</svg>

<svg xmlns="http://www.w3.org/2000/svg" viewBox="0 0 24 24"><path d="M6.82 20.107V3.893h5.72v3.882c0 .523.408.947.91.947h3.73v11.385H6.82zm7.54-14.875l1.534 1.596H14.36V5.232zm4.57 2.179a.99.99 0 01.07.364v13.278c0 .524-.407.947-.91.947H5.91c-.502 0-.91-.423-.91-.947V2.947C5 2.424 5.408 2 5.91 2h7.54a.906.906 0 01.643.278l4.64 4.827c.083.087.15.191.197.306zm-3.74 6.66H8.81c-.502 0-.91.423-.91.947 0 .523.408.946.91.946h6.38c.503 0 .91-.423.91-.946 0-.524-.407-.947-.91-.947zM8.81 9.929h2.32c.503 0 .91-.424.91-.947 0-.522-.407-.946-.91-.946H8.81c-.502 0-.91.424-.91.946 0 .523.408.947.91.947zm6.38 1.124H8.81c-.502 0-.91.424-.91.947 0 .523.408.947.91.947h6.38c.503 0 .91-.424.91-.947 0-.523-.407-.947-.91-.947zm-1.16 6.036H8.81c-.502 0-.91.423-.91.947 0 .523.408.946.91.946h5.22c.504 0 .91-.423.91-.946 0-.524-.406-.947-.91-.947z" fill="currentColor" fill-rule="evenodd"/></svg>
